main-pages/gulp-scss-starter/dist/img/default/inputs/pass.svg

<svg width="18" height="18" viewBox="0 0 18 18" fill="none" xmlns="http://www.w3.org/2000/svg">
<rect x="1" y="6" width="16" height="11" rx="2" stroke="#AFB0B0"/>
<path d="M4 6V4.75C4 4.33333 4.2 3.25 5 2.25C5.8 1.25 7.33333 1 8 1H9" stroke="#AFB0B0"/>
<path d="M14 6V4.75C14 4.33333 13.8 3.25 13 2.25C12.2 1.25 10.6667 1 10 1H9" stroke="#AFB0B0"/>
<circle cx="9" cy="10" r="1" fill="#AFB0B0"/>
<path d="M8.5 10.5V12.5C8.5 12.6667 8.6 13 9 13C9.4 13 9.5 12.6667 9.5 12.5V10.5H8.5Z" fill="#AFB0B0"/>
</svg>

<svg width="18" height="18" viewBox="0 0 18 18" fill="none" xmlns="http://www.w3.org/2000/svg"><rect x="1" y="6" width="16" height="11" rx="2" stroke="#AFB0B0"/><path d="M4 6V4.75c0-.417.2-1.5 1-2.5S7.333 1 8 1h1m5 5V4.75c0-.417-.2-1.5-1-2.5S10.667 1 10 1H9" stroke="#AFB0B0"/><circle cx="9" cy="10" r="1" fill="#AFB0B0"/><path d="M8.5 10.5v2c0 .167.1.5.5.5s.5-.333.5-.5v-2h-1z" fill="#AFB0B0"/></svg>
